!!!OTL: Gute Meinung (2-1) S. 11
!!!id: P0874
**kern
*clefG2
*k[b-e-a-]
*E-:
{16e-
=1
16e-
8e-
8f
8g
8a-
4b-
4b-
=2
8cc
8dd
8ee-
8cc
8cc
8b-
4b-}
=3
{8b-
8a-
8cc
8b-
4b-
8e-
8f
=4
8g
8a-
8g
8f
8f
8e-
4e-}
=5
{4.g
8b-
8b-
8a-
4a-
=6
8g
8e-
8b-
8g
8g
8f
4f}
=7
{4.g
8b-
8b-
8a-
4a-
=8
8g
8e-
8b-
8g
8g
8f
4f}
=9
{8e-
8f
8g
8a-
4b-
4b-
=10
8cc
8dd
8ee-
16cc
16cc
2b-}
=11
{8b-
8a-
8cc
8b-
4b-
8e-
8f
=12
8g
8a-
8g
16f
16f
4e-}
4r
=13
{8e-
8f
8g
8a-
4b-
4b-
=14
8cc
8dd
8ee-
16cc
16cc
2b-}
=15
{8b-
8a-
8cc
8b-
4b-
8e-
8f
=16
8g
8a-
8g
16f
16f
4e-}
4r
==
*-
!!!minrhy: 16
!!!meters: 4/4 ]  ZZ[8
!!!cut: Gute Meinung (2-1) S. 11
!!!reg: Lothringen
!!!trd: PINCK, Louis: Verklingende Weisen, Bd 2, Metz 1928
!!!rhy1:   X_X_X_X_X__X__  X_X_X_X_X_X_X__   (x2)
!!!rhy2: X_X_X_X_X__X_X_  X_X_X_X_X_X_X__
!!!key: P0874  16 Eb 4/4 ]  ZZ[8
!!!mod: HEPTATONIK IONISCH]  AMBITUS[8
!!!kad: 51225151
!!!akz: 1566_5532_3533_3533_1565_5531_1565_5531_
!!!fot: 'a__b__c__c__aw_b__aw_b__
!!!for: 'a__b__c__c__d__e__d__e__
!!!fok: '^a_Sd_^d_^d_^a_Sd_^a_Sd_
!! PHRAS[VOLLTAKTIG]
!!!fkt: geistliche, religiöse Lieder
!! LOTH VKL
!! PR[11] 2K[3] 2G[21] 3K[3] 3G[4] 4A[3] 4Ü[0] 5A[3] 6K[0] 6G[0]
!! 7K[0] 7G[0] 8A[0] MEHR[0] SI[37] ABS[71] SR[24] SP[13]
!! ST[26] 2k[10] 2g[38] 3k[0] 3g[1] 4d[1] 4ü[0] 5d[1] 6k[0] 6g[0]
!! 7k[0] 7g[0] 8d[0] mehr[0] si[52] dm[-15] sr[48] sp[4]
!! 1F[8] 2F[70] 3F[14] 4F[0] LF[0] 2P[8] 3P[0] 4P[0] TRI[0] DF[4] AB[74]
!! TF[0] U3K[0] U3[0] U4[0] U4Ü[0] U5[0] U6K[0] U6[0] U7K[1] U7[0]
!! N1[17] N2K[0] N2[13] N3K[18] N3[0] N4[21] N4Ü[0] N5[19] N6K[0] N6[3]
!!!n7k: 4] N7[0] O1[4] O2K[0] O2[0] O3K[0] O3[0] HÖ[0
